X: 103
T:Falls of Doonass (#299), The
T:Clancy's Reel
M:4/4
L:1/8
S:James Clancy, San Francisco
R:Reel
K:C
GA/2E/2|:ECCC CE G2|cGEG cGEG|FDDD DFAd|dcAd dcAG|
ECCC CEGc|cGEG cGEG|f2 fe fagf|1edcB c2 GF:|2edcB c2 d2|
|:eccc ecgc|efga gedc|BGGA BGBG|Bcde f2 f2|
eccc ecgc|efga gedc|f2 fe fagf|1edcB c/2d/2c/2B/2 cd:|2edcB cAGF||

